img/icons/electronic/watch.svg

<svg xmlns="http://www.w3.org/2000/svg" viewBox="0 0 38 48"><defs><style>.cls-1{fill:#231f20}</style></defs><g id="Layer_2" data-name="Layer 2"><g id="Icons"><g id="Device_Electronic" data-name="Device / Electronic"><g id="Watch"><path class="cls-1" d="M17 24h-6v2h8V14h-2v10z"/><path class="cls-1" d="M38 24a5 5 0 00-4.75-5 17 17 0 00-5.43-8.13L25.87 0H8.13l-2 10.9a17 17 0 000 26.21L8.17 48h17.66l2-10.89A17.06 17.06 0 0033.25 29 5 5 0 0038 24zM9.81 2h14.38l1.31 7.3a16.86 16.86 0 00-17 0zm14.36 44H9.83l-1.32-7.3a16.82 16.82 0 0017 0zM17 39a15 15 0 1115-15 15 15 0 01-15 15zm16.73-12.1a15.71 15.71 0 000-5.8 3 3 0 010 5.8z"/></g></g></g></g></svg>

<svg xmlns="http://www.w3.org/2000/svg" viewBox="0 0 38 48"><defs><style>.cls-1{fill:#231f20;}</style></defs><title>Watch</title><g id="Layer_2" data-name="Layer 2"><g id="Icons"><g id="Device_Electronic" data-name="Device / Electronic"><g id="Watch"><polygon class="cls-1" points="17 24 11 24 11 26 19 26 19 14 17 14 17 24"/><path class="cls-1" d="M38,24a5,5,0,0,0-4.75-5,17,17,0,0,0-5.43-8.13L25.87,0H8.13l-2,10.9a17,17,0,0,0,0,26.21L8.17,48H25.83l2-10.89A17.06,17.06,0,0,0,33.25,29,5,5,0,0,0,38,24ZM9.81,2H24.19L25.5,9.3a16.86,16.86,0,0,0-17,0ZM24.17,46H9.83L8.51,38.7a16.82,16.82,0,0,0,17,0ZM17,39A15,15,0,1,1,32,24,15,15,0,0,1,17,39ZM33.73,26.9a15.71,15.71,0,0,0,0-5.8,3,3,0,0,1,0,5.8Z"/></g></g></g></g></svg>
